workspaces/osm/styles/symbols/shop/travel_agency.svg

<?xml version="1.0" encoding="UTF-8" standalone="no"?>
<!-- Created with Inkscape (http://www.inkscape.org/) -->

<svg
   xmlns:dc="http://purl.org/dc/elements/1.1/"
   xmlns:cc="http://creativecommons.org/ns#"
   xmlns:rdf="http://www.w3.org/1999/02/22-rdf-syntax-ns#"
   xmlns:svg="http://www.w3.org/2000/svg"
   xmlns="http://www.w3.org/2000/svg"
   version="1.1"
   width="14"
   height="14"
   viewBox="0 0 14 14"
   id="svg2">
  <defs
     id="defs3053" />
  <metadata
     id="metadata8">
    <rdf:RDF>
      <cc:Work
         rdf:about="">
        <dc:format>image/svg+xml</dc:format>
        <dc:type
           rdf:resource="http://purl.org/dc/dcmitype/StillImage" />
        <dc:title></dc:title>
      </cc:Work>
    </rdf:RDF>
  </metadata>
  <rect
     width="14"
     height="14"
     x="0"
     y="0"
     id="canvas"
     style="fill:none;stroke:none;visibility:hidden" />
  <path
     d="M 0,9 C 0,8 0,8 1,8 c 2.3333333,0 4.6666667,0 7,0 1,0 1,0 1,1 0,1.333333 0,2.666667 0,4 0,1 0,1 -1,1 C 5.6666667,14 3.3333333,14 1,14 0,14 0,14 0,13 0,11.666667 0,10.333333 0,9 z M 13,4.03125 13,7 l 1,0 0,-2.96875 -1,0 z M 11.21875,3.6875 9.59375,6.15625 10.40625,6.6875 12.0625,4.25 11.21875,3.6875 z M 9.9375,2.03125 7.125,3.1875 7.5,4.09375 10.3125,2.96875 9.9375,2.03125 z M 7,-0.03125 l 0,1 L 10.09375,1 l 0,-1 L 7,-0.03125 z M 3,8 3,6.2964824 l 3,0 L 6,8 7,8 7,6 C 7,5 7,5 6,5 5,5 4,5 3,5 2,5 2,5 2,6 L 2,8 z M 14.726968,1.4871188 c 0,1.1045695 -0.89543,2 -2,2 -1.104569,0 -2,-0.8954305 -2,-2 0,-1.10456946 0.895431,-1.99999996 2,-1.99999996 0.916949,0 1.716441,0.62354577 1.939772,1.51288116"
     id="path2996"
     style="fill:#000000;fill-opacity:1;fill-rule:evenodd;stroke:none" />
</svg>

<svg width="14" height="14" version="1.1" viewBox="0 0 14 14" xmlns="http://www.w3.org/2000/svg"><rect id="a" width="14" height="14" fill="none" visibility="hidden"/><path d="m0 9c0.031813-0.32011-0.10711-0.82083 0.28262-0.95938 0.51699-0.07442 1.0437-0.027509 1.5651-0.040619 2.1839 0.00238 4.3678-0.00486 6.5516 0.00381 0.40833-0.07534 0.67072 0.28477 0.59872 0.66611 5.962e-4 1.5979 0.00872 3.196-0.00464 4.7937 0.065907 0.43515-0.38088 0.59288-0.7377 0.53555-2.5517-5.1e-4 -5.1034 0.0052-7.655-3e-3 -0.40833 0.07534-0.67072-0.28477-0.59872-0.66611-0.004383-1.4433-7.7583e-4 -2.8867-0.0019518-4.3301zm13-4.9688v2.9688h1v-2.9688h-1zm-1.7812-0.34375c-0.54167 0.82292-1.0833 1.6458-1.625 2.4688 0.27083 0.17708 0.54167 0.35417 0.8125 0.53125 0.55208-0.8125 1.1042-1.625 1.6562-2.4375l-0.84375-0.5625zm-1.2812-1.6562c-0.9375 0.38542-1.875 0.77083-2.8125 1.1562 0.125 0.30208 0.25 0.60417 0.375 0.90625l2.8125-1.125-0.375-0.9375zm-2.9375-2.0625v1c1.0312 0.010417 2.0625 0.020833 3.0938 0.03125v-1c-1.0312-0.010417-2.0625-0.020833-3.0938-0.03125zm-4 8.0312v-1.7035h3v1.7035h1c-0.0065518-0.85933 0.015246-1.7195-0.015625-2.5781 0.0063464-0.45407-0.52936-0.4327-0.85024-0.42177-1.2191 0.0051638-2.4386-0.011776-3.6573 0.010364-0.45862-0.04192-0.51021 0.47532-0.47659 0.81351-5.469e-4 0.72534-9.79e-5 1.4507-2.441e-4 2.176h1zm11.727-6.5129c0.02279 0.99446-0.8043 1.9101-1.7955 1.9897-0.97122 0.12127-1.952-0.58094-2.1533-1.538-0.2364-0.93367 0.31336-1.9774 1.2154-2.3129 0.91668-0.38271 2.0714 0.046508 2.5092 0.94096 0.07119 0.13739 0.12623 0.28311 0.16389 0.43319" fill-rule="evenodd"/></svg>
